!!!COM: Anon.
!!!OTL: Echigo-Jishi
!!!OTC: Japanese Popular Music: A Collection of The Popular Music of Japan Rendered in to the Staff notation.
!!!CNT: Nippon, Japanese
!!!TXO: Nippon, Japan
!!!OCY: Nippon, Japan
!!!ODT: <1892///
!!!PSR: S. Miki & Co.
!!!PSP: Osaka, Nippon
!!!PDT: 1892///
!!!PPE: Y Nagai & K. Kobatake
!!!PED: Revised Second Edition
!!!PPG: page 96-97
!! Allegro
**kern	**silbe
*ICstr	*Lnippon
*ICvox	*
*Ikoto	*
*Ivox	*
*clefG2	*
*k[]	*
*M2/4	*
=1-	=1-
8a	.
8a	.
8b	.
8a	.
=2	=2
8b	.
8a	.
8b	.
8cc	.
=3	=3
8ee	.
8cc	.
8b	.
8a	.
=4	=4
4.f	.
8r	.
=5	=5
8f	.
8a	.
8b	.
8a	.
=6	=6
4.f	.
8e	.
=7	=7
8f	.
8a	.
8f	.
8e	.
=8	=8
8d	.
8d	.
8d	.
8d	.
=9	=9
8f	.
8e	.
8B	.
8d	.
=10	=10
4.e	.
8r	.
=11	=11
8d	.
4d	.
8e	.
=12	=12
8f	.
4f	.
8e	.
=13	=13
8a	.
8a	.
8b	.
8a	.
=14	=14
4b	.
8cc	.
8ee	.
=15	=15
8ff#	.
4ff3	.
8ee	.
=16	=16
8cc	.
8cc	.
8cc	.
8ee	.
=17	=17
8ff#	.
4ff#	.
8ee	.
=18	=18
8cc	.
16ee	.
16cc	.
8b	.
8a	.
=19	=19
8b	.
8cc	.
8ee	.
8a	.
=20	=20
8cc	.
8b	.
8a	.
8f	.
=21	=21
4.e	.
8f	.
=22	=22
8a	.
8b	.
4cc	.
=23	=23
4ee	.
8cc	.
8b	.
=24	=24
4a	.
8a	.
8f	.
=25	=25
4.a	.
8b	.
=26	=26
8cc	.
8b	.
8a	.
8f	.
=27	=27
4.e	.
8e	.
=28	=28
8b	.
8cc	.
8cc	.
8b	.
=29	=29
8cc	.
8ee	.
8cc	.
8b	.
=30	=30
8a	.
8b	.
8cc	.
8a	.
=31	=31
8f	.
16a	.
16f	.
8e	.
8d	.
=32	=32
8e	.
8f	.
16a	.
16a	.
16a	.
16a	.
=33	=33
8b	.
8b	.
8cc	.
16cc	.
16cc	.
=34	=34
8b	.
16cc	.
16b	.
8a	.
16b	.
16a	.
=35	=35
8f	.
8e	.
8d	.
8d	.
=36	=36
8r	.
8e	.
8f	.
8a	.
=37	=37
8f	.
8e	.
8B	.
16B	.
16B	.
=38	=38
8B	.
8d	.
4e	.
=39	=39
8r	.
(8cc	.
4ee)	.
=40	=40
8cc	.
8b	.
8a	.
8b	.
=41	=41
(8cc	.
8a)	.
4f	.
=42	=42
8e	.
8d	.
8e	.
8a	.
=43	=43
4.f	.
8e	.
=44	=44
8f	.
16f	.
16f	.
8e	.
8d	.
=45	=45
8d	.
8e	.
8r	.
(16.b	.
32a	.
=46	=46
4f)	.
(4f	.
=47	=47
4e)	.
4r	.
==	==
*-	*-
!!!ENC: David Huron
!!!RDT: 2000/1/30
!!!EEV: Release 1.0
!!!ELF: 26/28
!!!YER: 2000/2/1
!!!YEM: Copyright David Huron, 2000
!!!YEN: United States of America
